X: 5667
T: By Golly
R: jig
M: 6/8
K: Amixolydian
A|:dcA GFG|Adc d2e|dcA GAB|(3BAG E E2A|
dcA GFG|Adc d2e|{a}fed (3efe 2d|1 cAA A2A:|2 cAA A2d||
efg efg|ege dcd|efg a2b|age dcd|
efg a2b|age d2e|{a}fed (3efe 2d|1 cAA A2d:|2 cAA gfe||

